assets/img/jaxon-placeholder-logo-04.1.2.svg

<svg fill="none" height="29" viewBox="0 0 112 29" width="112" xmlns="http://www.w3.org/2000/svg"><path d="m3.44727 26.0813h23.90723v-23.90723h-23.90723zm19.30563-14.2539h-5.0517v-5.05178h5.0517zm-14.70502-5.05178h5.05452v9.65238h9.6505v5.0517h-14.70502zm34.87472-4.60155c-2.3643 0-4.6754.70107-6.6411 2.01455-1.9658 1.31348-3.4979 3.18038-4.4027 5.36462-.9047 2.18426-1.1413 4.58766-.6802 6.90646.4613 2.3187 1.5997 4.4487 3.2715 6.1204 1.6717 1.6718 3.8016 2.8102 6.1204 3.2715 2.3188.4612 4.7222.2245 6.9065-.6802 2.1843-.9048 4.0511-2.4369 5.3646-4.4027s2.0146-4.2769 2.0146-6.641c-.0038-3.1692-1.2644-6.20748-3.5053-8.44841s-5.2792-3.50152-8.4483-3.50522zm0 19.30563c-1.4541 0-2.8756-.4312-4.0847-1.2391-1.2089-.8078-2.1513-1.956-2.7078-3.2994-.5564-1.3434-.702-2.8216-.4184-4.2479.2838-1.4261.984-2.73611 2.0122-3.76431s2.3382-1.72842 3.7643-2.0121c1.4262-.28368 2.9044-.13808 4.2479.41838 1.3433.55645 2.4916 1.49878 3.2994 2.70783.8079 1.209 1.2391 2.6305 1.2391 4.0846-.003 1.949-.7785 3.8173-2.1567 5.1954-1.3781 1.3782-3.2464 2.1536-5.1953 2.1566zm54.7293-19.30563c-2.3647-.00017-4.6755.70073-6.6414 2.0141-1.9659 1.31336-3.4981 3.18019-4.403 5.36442-.9049 2.18421-1.1418 4.58771-.6806 6.90651.4611 2.3189 1.5995 4.4489 3.2712 6.1207s3.8016 2.8104 6.1208 3.2717c2.318.4613 4.7221.2246 6.9061-.68 2.184-.9048 4.051-2.4369 5.364-4.4027 1.315-1.9658 2.016-4.2769 2.016-6.6411-.004-3.169-1.264-6.20718-3.505-8.44808-2.241-2.24091-5.279-3.5016-8.4481-3.50555zm0 19.30563c-1.4541.0002-2.8754-.4309-4.0849-1.2386-1.2091-.8077-2.1516-1.9559-2.7082-3.2993-.5567-1.3434-.7023-2.8217-.4188-4.2479.2836-1.4261.9838-2.73624 2.0119-3.76458 1.0282-1.0283 2.3385-1.72861 3.7646-2.01236 1.426-.28375 2.9043-.13821 4.2475.41822 1.344.55643 2.492 1.49875 3.3 2.70782.807 1.2091 1.239 2.6306 1.239 4.0847-.003 1.9488-.778 3.8169-2.157 5.195-1.377 1.3782-3.2452 2.1538-5.1941 2.157zm-27.3652-19.30563c-2.3642 0-4.6753.70107-6.641 2.01455-1.9658 1.31348-3.4979 3.18038-4.4027 5.36462-.9047 2.18426-1.1414 4.58766-.6802 6.90646.4613 2.3187 1.5997 4.4487 3.2714 6.1204 1.6718 1.6718 3.8017 2.8102 6.1205 3.2715 2.3187.4612 4.7222.2245 6.9065-.6802 2.1842-.9048 4.051-2.4369 5.3646-4.4027 1.3134-1.9658 2.0145-4.2769 2.0145-6.641-.0037-3.1692-1.2643-6.20748-3.5052-8.44841-2.241-2.24093-5.2792-3.50152-8.4484-3.50522zm0 19.30563c-1.3548.0007-2.6833-.373-3.8392-1.0798-1.1557-.7068-2.0938-1.7191-2.7106-2.9253-.6166-1.2063-.8881-2.5595-.7843-3.9103s.5788-2.6466 1.3726-3.7445c.7939-1.09781 1.8756-1.95497 3.1258-2.47683s2.6203-.68812 3.9591-.48044c1.3388.20769 2.594.78124 3.6274 1.65736 1.0334.87611 1.8046 2.02081 2.2285 3.30751h-6.9793v4.6006h6.9793c-.4855 1.4682-1.421 2.7465-2.6737 3.6532-1.2527.9068-2.7591 1.396-4.3056 1.3985z" fill="#f4f4f4"/></svg>

<svg width="112" height="29" viewBox="0 0 112 29" fill="none" xmlns="http://www.w3.org/2000/svg">
<path d="M3.44727 26.0813H27.3545V2.17407H3.44727V26.0813ZM22.7529 11.8274H17.7012V6.77562H22.7529V11.8274ZM8.04788 6.77562H13.1024V16.428H22.7529V21.4797H8.04788V6.77562ZM42.9226 2.17407C40.5583 2.17407 38.2472 2.87514 36.2815 4.18862C34.3157 5.5021 32.7836 7.369 31.8788 9.55324C30.9741 11.7375 30.7375 14.1409 31.1986 16.4597C31.6599 18.7784 32.7983 20.9084 34.4701 22.5801C36.1418 24.2519 38.2717 25.3903 40.5905 25.8516C42.9093 26.3128 45.3127 26.0761 47.497 25.1714C49.6813 24.2666 51.5481 22.7345 52.8616 20.7687C54.1751 18.8029 54.8762 16.4918 54.8762 14.1277C54.8724 10.9585 53.6118 7.92022 51.3709 5.67929C49.13 3.43836 46.0917 2.17777 42.9226 2.17407ZM42.9226 21.4797C41.4685 21.4797 40.047 21.0485 38.8379 20.2406C37.629 19.4328 36.6866 18.2846 36.1301 16.9412C35.5737 15.5978 35.4281 14.1196 35.7117 12.6933C35.9955 11.2672 36.6957 9.95719 37.7239 8.92899C38.7521 7.90079 40.0621 7.20057 41.4882 6.91689C42.9144 6.63321 44.3926 6.77881 45.7361 7.33527C47.0794 7.89172 48.2277 8.83405 49.0355 10.0431C49.8434 11.2521 50.2746 12.6736 50.2746 14.1277C50.2716 16.0767 49.4961 17.945 48.1179 19.3231C46.7398 20.7013 44.8715 21.4767 42.9226 21.4797ZM97.6519 2.17407C95.2872 2.1739 92.9764 2.8748 91.0105 4.18817C89.0446 5.50153 87.5124 7.36836 86.6075 9.55259C85.7026 11.7368 85.4657 14.1403 85.9269 16.4591C86.388 18.778 87.5264 20.908 89.1981 22.5798C90.8698 24.2516 92.9997 25.3902 95.3189 25.8515C97.6369 26.3128 100.041 26.0761 102.225 25.1715C104.409 24.2667 106.276 22.7346 107.589 20.7688C108.904 18.803 109.605 16.4919 109.605 14.1277C109.601 10.9587 108.341 7.92052 106.1 5.67962C103.859 3.43871 100.821 2.17802 97.6519 2.17407ZM97.6519 21.4797C96.1978 21.4799 94.7765 21.0488 93.567 20.2411C92.3579 19.4334 91.4154 18.2852 90.8588 16.9418C90.3021 15.5984 90.1565 14.1201 90.44 12.6939C90.7236 11.2678 91.4238 9.95766 92.4519 8.92932C93.4801 7.90102 94.7904 7.20071 96.2165 6.91696C97.6425 6.63321 99.1208 6.77875 100.464 7.33518C101.808 7.89161 102.956 8.83393 103.764 10.043C104.571 11.2521 105.003 12.6736 105.003 14.1277C105 16.0765 104.225 17.9446 102.846 19.3227C101.469 20.7009 99.6008 21.4765 97.6519 21.4797ZM70.2867 2.17407C67.9225 2.17407 65.6114 2.87514 63.6457 4.18862C61.6799 5.5021 60.1478 7.369 59.243 9.55324C58.3383 11.7375 58.1016 14.1409 58.5628 16.4597C59.0241 18.7784 60.1625 20.9084 61.8342 22.5801C63.506 24.2519 65.6359 25.3903 67.9547 25.8516C70.2734 26.3128 72.6769 26.0761 74.8612 25.1714C77.0454 24.2666 78.9122 22.7345 80.2258 20.7687C81.5392 18.8029 82.2403 16.4918 82.2403 14.1277C82.2366 10.9585 80.976 7.92022 78.7351 5.67929C76.4941 3.43836 73.4559 2.17777 70.2867 2.17407ZM70.2867 21.4797C68.9319 21.4804 67.6034 21.1067 66.4475 20.3999C65.2918 19.6931 64.3537 18.6808 63.7369 17.4746C63.1203 16.2683 62.8488 14.9151 62.9526 13.5643C63.0564 12.2135 63.5314 10.9177 64.3252 9.8198C65.1191 8.72199 66.2008 7.86483 67.451 7.34297C68.7012 6.82111 70.0713 6.65485 71.4101 6.86253C72.7489 7.07022 74.0041 7.64377 75.0375 8.51989C76.0709 9.396 76.8421 10.5407 77.266 11.8274H70.2867V16.428H77.266C76.7805 17.8962 75.845 19.1745 74.5923 20.0812C73.3396 20.988 71.8332 21.4772 70.2867 21.4797Z" fill="#F4F4F4"/>
</svg>
